manual/professional/deepin-draw/zh_CN/icon/Alt.svg

<?xml version="1.0" encoding="iso-8859-1"?>
<!-- Generator: Adobe Illustrator 18.0.0, SVG Export Plug-In . SVG Version: 6.00 Build 0)  -->
<!DOCTYPE svg PUBLIC "-//W3C//DTD SVG 1.1//EN" "http://www.w3.org/Graphics/SVG/1.1/DTD/svg11.dtd">
<svg version="1.1" id="&#x56FE;&#x5C42;_1" xmlns="http://www.w3.org/2000/svg" xmlns:xlink="http://www.w3.org/1999/xlink" x="0px"
	 y="0px" viewBox="0 0 30 20" enable-background="new 0 0 30 20" xml:space="preserve">
<g>
	<path opacity="0.1" fill="#FFFFFF" d="M25.667,19.492H4.333c-2.108,0-3.833-1.725-3.833-3.833V4.325
		c0-2.108,1.725-3.833,3.833-3.833h21.334c2.108,0,3.833,1.725,3.833,3.833v11.334C29.5,17.767,27.775,19.492,25.667,19.492z"/>
	<path fill="none" stroke="#CBCBCB" stroke-miterlimit="10" d="M25.5,19.5h-21c-2.209,0-4-1.791-4-4v-11c0-2.209,1.791-4,4-4h21
		c2.209,0,4,1.791,4,4v11C29.5,17.709,27.709,19.5,25.5,19.5z"/>
	<path d="M14.455,14h1.033l-3-9h-1.033l-3,9h1.033l0.667-2h3.633L14.455,14z M10.488,11l1.483-4.45L13.455,11H10.488z"/>
	<path d="M16,14V5h1v9H16z"/>
	<path d="M21,13.811c0,0.114-0.342,0.171-0.697,0.171c-0.967,0-1.303-0.535-1.303-1.606V9h-1V8h1V6.728l1-0.303V8h1v1h-1v3.204
		c0,0.355-0.027,0.612,0.094,0.765c0.121,0.153,0.232,0.227,0.512,0.227c0.215,0,0.394-0.181,0.394-0.181V13.811z"/>
</g>
</svg>

<?xml version="1.0" encoding="UTF-8"?>
<svg width="30px" height="20px" viewBox="0 0 30 20" version="1.1" xmlns="http://www.w3.org/2000/svg" xmlns:xlink="http://www.w3.org/1999/xlink">
    <!-- Generator: Sketch 64 (93537) - https://sketch.com -->
    <title>Alt</title>
    <desc>Created with Sketch.</desc>
    <g id="页面-1" stroke="none" stroke-width="1" fill="none" fill-rule="evenodd">
        <g id="Alt">
            <path d="M25.667,19.492 L4.333,19.492 C2.225,19.492 0.5,17.767 0.5,15.659 L0.5,4.325 C0.5,2.217 2.225,0.492 4.333,0.492 L25.667,0.492 C27.775,0.492 29.5,2.217 29.5,4.325 L29.5,15.659 C29.5,17.767 27.775,19.492 25.667,19.492 Z" id="路径" fill="#FFFFFF" fill-rule="nonzero"></path>
            <path d="M25.5,19.5 L4.5,19.5 C2.291,19.5 0.5,17.709 0.5,15.5 L0.5,4.5 C0.5,2.291 2.291,0.5 4.5,0.5 L25.5,0.5 C27.709,0.5 29.5,2.291 29.5,4.5 L29.5,15.5 C29.5,17.709 27.709,19.5 25.5,19.5 Z" id="路径" stroke="#CBCBCB"></path>
            <path d="M14.455,14 L15.488,14 L12.488,5 L11.455,5 L8.455,14 L9.488,14 L10.155,12 L13.788,12 L14.455,14 Z M10.488,11 L11.971,6.55 L13.455,11 L10.488,11 Z" id="形状" fill="#000000" fill-rule="nonzero"></path>
            <polygon id="路径" fill="#000000" fill-rule="nonzero" points="16 14 16 5 17 5 17 14"></polygon>
            <path d="M21,13.811 C21,13.925 20.658,13.982 20.303,13.982 C19.336,13.982 19,13.447 19,12.376 L19,9 L18,9 L18,8 L19,8 L19,6.728 L20,6.425 L20,8 L21,8 L21,9 L20,9 L20,12.204 C20,12.559 19.973,12.816 20.094,12.969 C20.215,13.122 20.326,13.196 20.606,13.196 C20.821,13.196 21,13.015 21,13.015 L21,13.811 Z" id="路径" fill="#000000" fill-rule="nonzero"></path>
        </g>
    </g>
</svg>
